assets/icons/ic_one_1.svg

<svg enable-background="new 0 0 512 512" viewBox="0 0 512 512" xmlns="http://www.w3.org/2000/svg">
    <path d="m256 356c0 5.5-4.5 10-10 10s-10-4.5-10-10 4.5-10 10-10 10 4.5 10 10z" />
    <path
        d="m369.3 57.3c-9.6 0-18.5 2.9-25.9 7.9-6.2-18-23.4-31.2-43.9-31.2-13.9 0-26.3 6.1-34.9 15.8-9-10.2-21.6-15.8-34.9-15.8-13.9 0-26.4 6.1-34.9 15.8-8.5-9.7-21-15.8-34.9-15.8-25.6 0-46.5 20.9-46.5 46.5v65.2c-14.5 10.9-23.3 28.2-23.3 46.5 0 62 29.2 120.8 79.1 158.2 8.6 6.5 14 16.7 14 27.9v100c0 6.4 5.2 11.6 11.6 11.6h186.2c6.4 0 11.6-5.2 11.6-11.6v-98.2c7.6-23 13.4-46.8 17.3-70.8 4-24.6 6-49.6 6-74.5v-131c0-25.7-20.9-46.5-46.6-46.5zm-93 23.2c0-12.8 10.4-23.3 23.3-23.3s23.3 10.4 23.3 23.3v76.8c0 12.8-10.4 23.3-23.3 23.3s-23.3-10.4-23.3-23.3zm-69.8 0c0-12.8 10.4-23.3 23.3-23.3s23.3 10.4 23.3 23.3v53.5h-46.5v-53.5zm-69.8 0c0-12.8 10.4-23.3 23.3-23.3 12.8 0 23.3 10.4 23.3 23.3v53.5h-34.9c-3.9 0-7.8.4-11.6 1.2v-54.7zm232.6 386.2h-162.8v-53.5h162.9v53.5zm23.3-231.7c0 23.6-1.9 47.4-5.7 70.7-7.5 46.1-17.6 67-17.6 72.6v11.7h-162.8v-11.6c0-18-8.4-35.4-23.3-46.5-44.1-33.1-69.8-85-69.8-139.6 0-18.9 15.3-34.9 34.9-34.9h103.5c-5.4 26.5-28.9 46.5-57 46.5h-23.3c-6.4 0-11.6 5.2-11.6 11.6s5.2 11.6 11.6 11.6h11.6c22.1 0 41.3 15.7 45.6 37.4 1.2 6.3 7.3 10.4 13.7 9.1 6.3-1.3 10.4-7.4 9.1-13.7-3.2-16.1-11.9-29.9-23.8-39.9 15.2-6.8 28-18.1 36.6-32.2 8.5 9.8 21.1 16 35.1 16 9.6 0 18.5-2.9 25.9-7.9 6.4 18.1 23.6 31.2 43.9 31.2 8.5 0 16.4-2.3 23.3-6.3v14.2zm0-54.4c0 12.8-10.4 23.3-23.3 23.3-12.8 0-23.3-10.4-23.3-23.3v-76.8c0-12.8 10.4-23.3 23.3-23.3s23.3 10.4 23.3 23.3z" />
</svg>

<?xml version="1.0" encoding="utf-8"?><!-- Generator: Adobe Illustrator 23.0.6, SVG Export Plug-In . SVG Version: 6.00 Build 0)  -->
<svg version="1.1" id="Слой_1" xmlns="http://www.w3.org/2000/svg" x="0px" y="0px"
    viewBox="0 0 512 512" style="enable-background:new 0 0 512 512;" xml:space="preserve">
<path d="M256,356c0,5.5-4.5,10-10,10s-10-4.5-10-10s4.5-10,10-10S256,350.5,256,356z" />
    <path d="M369.3,57.3c-9.6,0-18.5,2.9-25.9,7.9C337.2,47.2,320,34,299.5,34c-13.9,0-26.3,6.1-34.9,15.8c-9-10.2-21.6-15.8-34.9-15.8
	c-13.9,0-26.4,6.1-34.9,15.8c-8.5-9.7-21-15.8-34.9-15.8c-25.6,0-46.5,20.9-46.5,46.5v65.2c-14.5,10.9-23.3,28.2-23.3,46.5
	c0,62,29.2,120.8,79.1,158.2c8.6,6.5,14,16.7,14,27.9v100c0,6.4,5.2,11.6,11.6,11.6H381c6.4,0,11.6-5.2,11.6-11.6v-98.2
	c7.6-23,13.4-46.8,17.3-70.8c4-24.6,6-49.6,6-74.5V103.8C415.9,78.1,395,57.3,369.3,57.3z M276.3,80.5c0-12.8,10.4-23.3,23.3-23.3
	c12.9,0,23.3,10.4,23.3,23.3v76.8c0,12.8-10.4,23.3-23.3,23.3s-23.3-10.4-23.3-23.3V80.5z M206.5,80.5c0-12.8,10.4-23.3,23.3-23.3
	c12.9,0,23.3,10.4,23.3,23.3V134h-46.5V80.5z M136.7,80.5c0-12.8,10.4-23.3,23.3-23.3c12.8,0,23.3,10.4,23.3,23.3V134h-34.9
	c-3.9,0-7.8,0.4-11.6,1.2V80.5z M369.3,466.7H206.5v-53.5h162.9V466.7z M392.6,235c0,23.6-1.9,47.4-5.7,70.7
	c-7.5,46.1-17.6,67-17.6,72.6V390H206.5v-11.6c0-18-8.4-35.4-23.3-46.5c-44.1-33.1-69.8-85-69.8-139.6c0-18.9,15.3-34.9,34.9-34.9
	h103.5c-5.4,26.5-28.9,46.5-57,46.5h-23.3c-6.4,0-11.6,5.2-11.6,11.6s5.2,11.6,11.6,11.6h11.6c22.1,0,41.3,15.7,45.6,37.4
	c1.2,6.3,7.3,10.4,13.7,9.1c6.3-1.3,10.4-7.4,9.1-13.7c-3.2-16.1-11.9-29.9-23.8-39.9c15.2-6.8,28-18.1,36.6-32.2
	c8.5,9.8,21.1,16,35.1,16c9.6,0,18.5-2.9,25.9-7.9c6.4,18.1,23.6,31.2,43.9,31.2c8.5,0,16.4-2.3,23.3-6.3V235z M392.6,180.6
	c0,12.8-10.4,23.3-23.3,23.3c-12.8,0-23.3-10.4-23.3-23.3v-76.8c0-12.8,10.4-23.3,23.3-23.3c12.9,0,23.3,10.4,23.3,23.3V180.6z" />
</svg>
